X:1
T:Wesley, 66.66.88
T:Composer Unknown
T:Wesley, 66.66.88
T:Public Domain
C:Composer Unknown
Z:Public Domain
%%score ( 1 2 ) ( 3 4 )
L:1/8
M:6/4
K:F
V:1 treble 
V:2 treble 
V:3 bass 
V:4 bass 
V:1
 x12 |: F2 | A2 G2 F2 [Fc]2 [EB]2 [FA]2 | [EG]6- [EG]4 [FA]2 | B2 c2 [Fd]2 [EG]4 [EG]2 | F6- =F4 :| %6
 [Gc]2 | [^Fc]2 [GB]2 [FA]2 [GB]4 [=FB]2 | [EB]2 [FA]2 [EG]2 [FA]4 [Gc]2 | %9
 z2 G2 [_EA]2 [Dd]2 [Fc]2 [FB]2 | [FA]4 [EG]2 F4 |] %11
V:2
 x12 |: F2 | F4 x8 | x12 | F4 x8 | F6 =F4 :| x2 | x12 | x12 | F4 x8 | x6 F4 |] %11
V:3
 x12 |: [F,A,]2 | C2 B,2 [F,A,]2 A,2 G,2 [E,C]2 | [C,C]6- [C,C]4 [F,C]2 | %4
 [D,B,]2 [C,A,]2 [B,,B,]2 A,2 B,2 [C,C]2 | [F,A,]6- [F,A,]4 :| [E,G,]2 | %7
 A,2 B,2 [D,D]2 [G,B,]4 G,2 | G,2 A,2 [C,C]2 [F,A,]4 [E,C]2 | %9
 [D,A,]4 [C,A,]2 [B,,B,]2 [A,,C]2 [B,,D]2 | [C,C]4 [C,B,]2 [F,A,]4 |] %11
V:4
 x12 |: x2 | F,4 C4 x4 | x12 | x6 C,4 x2 | x10 :| x2 | D,4 x4 G,2 x2 | C,4 x8 | x12 | x10 |] %11

